packages/core/src/svgs/tokens/branded/ZKB.svg

<svg width="24" height="24" viewBox="0 0 24 24" fill="none" xmlns="http://www.w3.org/2000/svg">
<path d="M13.1651 12.6257L12.2902 11.732C12.2762 11.7143 12.2695 11.692 12.2715 11.6696C12.2709 11.6579 12.2728 11.6464 12.2772 11.6356C12.2814 11.6248 12.2881 11.615 12.2964 11.607L13.1714 10.7508H14.8213C14.8839 10.7508 14.8964 10.732 14.8526 10.6883C12.3465 8.21341 9.82153 6.05101 7.29039 3.53235C6.85291 3.09486 7.0404 2.39489 7.54038 2.1199C7.97787 1.86991 8.40285 2.03866 8.73408 2.3699C11.734 5.33854 14.7526 7.99467 17.79 10.9945C18.215 11.4257 18.1775 12.182 17.6275 12.4633C17.4838 12.5382 17.2274 12.6257 16.8713 12.6257H13.1651Z" fill="#9C63D6"/>
<path d="M9.5337 2.64489C9.70869 1.68868 11.4024 1.79493 11.3774 2.98238V4.40108L11.3648 4.42607C11.3604 4.43144 11.3545 4.43546 11.3479 4.43767C11.3413 4.43987 11.3342 4.44019 11.3273 4.43857L11.3024 4.43233C10.7837 3.91359 10.2462 3.40111 9.70869 2.88864C9.63995 2.82614 9.5837 2.7574 9.5337 2.6824C9.5337 2.6824 9.5212 2.68864 9.5337 2.64489ZM14.2522 7.05097C14.2443 7.04394 14.2379 7.03528 14.2335 7.02558C14.2292 7.01588 14.2268 7.00537 14.2268 6.99472C14.2268 6.98408 14.2292 6.97356 14.2335 6.96387C14.2379 6.95417 14.2443 6.94551 14.2522 6.93848L19.1271 2.31991C19.3111 2.13818 19.5561 2.03128 19.8145 2.01992C19.9395 2.01992 20.0646 2.03867 20.177 2.08242C20.2895 2.12617 20.3958 2.19491 20.4833 2.27617L20.4895 2.28866C20.5757 2.37407 20.643 2.47661 20.6871 2.58964C20.7313 2.70265 20.7513 2.82367 20.7458 2.94489C20.7398 3.2027 20.6319 3.44764 20.4458 3.62611L15.5709 8.24467C15.5558 8.25919 15.5356 8.26729 15.5148 8.26729C15.4938 8.26729 15.4737 8.25919 15.4585 8.24467L14.2522 7.05097ZM12.8148 10.6508L11.8337 11.6384C11.8252 11.6464 11.8186 11.656 11.8143 11.6668C11.81 11.6776 11.8081 11.6892 11.8086 11.7008C11.8081 11.7124 11.81 11.724 11.8143 11.7347C11.8186 11.7455 11.8252 11.7553 11.8337 11.7633L12.721 12.6195C15.2835 15.1194 17.8334 17.9005 20.3707 20.3567C21.3145 21.2691 20.0083 22.6066 19.0645 21.6879C16.5397 19.2317 13.9897 16.4444 11.4148 13.9382L11.4024 13.9257C11.3711 13.9257 11.3774 13.9382 11.3774 13.957V17.1693C11.3774 17.2443 11.3336 17.2568 11.2773 17.2005L9.65244 15.6256C9.60499 15.5831 9.56709 15.5312 9.54124 15.473C9.51537 15.4148 9.50215 15.3519 9.50245 15.2881V6.15101C9.50245 6.101 9.5212 6.09476 9.55245 6.12601L11.3087 7.83844C11.3273 7.85093 11.3399 7.86969 11.3462 7.89468C11.3587 7.91344 11.3774 7.93843 11.3774 7.95718V9.36957C11.3774 9.45706 11.3962 9.46961 11.4586 9.40719L12.2211 8.63216C12.2326 8.62038 12.2484 8.61364 12.2649 8.61341C12.2814 8.61364 12.2971 8.62038 12.3086 8.63216L13.5461 9.83213C13.5773 9.86961 13.5773 9.90082 13.5461 9.9383L12.8211 10.6508H12.8148Z" fill="#1F1F1F"/>
<path d="M9.17099 10.7508V12.6258H6.48359C6.43984 12.6258 6.4336 12.6383 6.46485 12.6632C8.9335 15.1131 11.4272 17.8693 13.9457 20.3504C14.1458 20.5505 14.2583 20.7692 14.2896 21.0066C14.3395 21.4566 14.002 21.8754 13.5646 21.9753C13.4021 22.0134 13.2325 22.0073 13.0733 21.9578C12.914 21.9084 12.7707 21.8174 12.6584 21.6942C9.60847 18.6693 6.56485 15.3631 3.52746 12.3633C3.43702 12.2743 3.366 12.1674 3.31887 12.0496C3.27175 11.9319 3.24954 11.8055 3.25366 11.6787C3.25775 11.5519 3.2881 11.4273 3.34276 11.3127C3.39741 11.1982 3.4752 11.0963 3.57121 11.0133C3.78419 10.8346 4.05582 10.7411 4.33368 10.7508H9.17099Z" fill="#9C63D6"/>
<path d="M9.50244 19.1505L9.5087 19.1254C9.5087 19.1193 9.5087 19.113 9.5212 19.1068C9.52808 19.1006 9.53697 19.0971 9.54619 19.0971C9.55542 19.0971 9.56432 19.1006 9.5712 19.1068C10.1587 19.688 10.7274 20.2442 11.2836 20.7755C11.3774 20.863 11.4024 21.2192 11.3587 21.3379C11.3093 21.4871 11.2239 21.6217 11.1102 21.7301C10.9965 21.8384 10.8578 21.9172 10.7064 21.9592C10.555 22.0012 10.3956 22.0052 10.2424 21.971C10.0891 21.9367 9.94656 21.8652 9.82743 21.7629C9.62119 21.6004 9.51495 21.3942 9.51495 21.1504L9.50244 19.1505Z" fill="#1F1F1F"/>
</svg>

<svg xmlns="http://www.w3.org/2000/svg" width="24" height="24" fill="none" viewBox="0 0 24 24">
    <path fill="#9C63D6" d="m13.165 12.626-.875-.894a.1.1 0 0 1-.018-.062q-.002-.019.005-.034a.1.1 0 0 1 .02-.029l.874-.856h1.65q.096.002.032-.063C12.347 8.213 9.822 6.051 7.29 3.532c-.437-.437-.25-1.137.25-1.412.438-.25.863-.081 1.194.25 3 2.969 6.019 5.625 9.056 8.625.425.43.387 1.187-.162 1.468-.144.075-.4.163-.757.163z"/>
    <path fill="#1F1F1F" d="M9.534 2.645c.175-.956 1.868-.85 1.843.337v1.42l-.012.024a.04.04 0 0 1-.038.013l-.025-.007A93 93 0 0 0 9.71 2.89a1 1 0 0 1-.175-.207s-.013.007 0-.037m4.718 4.406a.08.08 0 0 1-.025-.056.08.08 0 0 1 .025-.057l4.875-4.618c.184-.182.43-.289.688-.3.124 0 .25.019.362.062a1 1 0 0 1 .306.194l.006.013a.87.87 0 0 1 .257.656.98.98 0 0 1-.3.681L15.57 8.245a.08.08 0 0 1-.112 0zm-1.437 3.6-.981.987a.08.08 0 0 0-.025.063.08.08 0 0 0 .025.062l.887.857c2.563 2.5 5.112 5.28 7.65 7.737.944.912-.363 2.25-1.306 1.33-2.525-2.455-5.075-5.243-7.65-7.749l-.013-.012c-.03 0-.025.012-.025.031v3.212c0 .075-.043.088-.1.032l-1.625-1.575a.45.45 0 0 1-.15-.338V6.151c0-.05.02-.056.05-.025l1.757 1.712a.1.1 0 0 1 .037.057c.013.018.031.043.031.062V9.37c0 .087.02.1.082.037l.762-.775a.06.06 0 0 1 .044-.019q.025 0 .044.02l1.237 1.2c.031.037.031.068 0 .105l-.725.713z"/>
    <path fill="#9C63D6" d="M9.171 10.75v1.876H6.484q-.066 0-.02.037c2.47 2.45 4.963 5.206 7.482 7.687q.298.3.344.657c.05.45-.288.868-.725.968a.94.94 0 0 1-.907-.28c-3.05-3.026-6.093-6.332-9.13-9.332a.92.92 0 0 1 .043-1.35c.213-.178.485-.272.763-.262z"/>
    <path fill="#1F1F1F" d="m9.502 19.15.007-.025c0-.006 0-.012.012-.018a.04.04 0 0 1 .05 0c.588.581 1.156 1.137 1.713 1.669.093.087.118.443.075.562a.958.958 0 0 1-1.532.425.76.76 0 0 1-.312-.613z"/>
</svg>
